X: 32
T:Jackson's Morning Brush.
M:6/8
L:1/8
S: Gerry O'Connor, Swannannoa 2008
Z:Alf Warnock - alf0@rogers.com
K:D
D|DFE EFD|DFA AFA|BAB def|gfg e2f|
DFE EFD|DFA AFA|BAB d2e|fdc d2:|
g|fed faf|ede fdB|AFA def|gfg e2g|
fed faf|ede fdB|AFA d2e|fdc d2:|

